X:1
T: The Boys of Bockhill
C:
R:Jig
Q:180
K:G
M:6/8
L:1/16
|:d2|g2f2g2 efg2e2|d2B2G2 A2G2E2|D2G2G2 A2G2A2|B2A2B2 A2B2d2|
g2f2g2 efg2e2|d2B2G2 A2G2E2|D2G2G2 A2G2A2|B2G2G2 G4:|
|:d2|e2d2d2 g2d2d2|e2d2d2 g2d2d2|e3gfa g2f2e2|d2B2G2 A2F2D2|
g2f2g2 efg2e2|d2B2G2 A2G2E2|D2G2G2 ABc2A2|B2G2G2 G4:|
